packages/components/svg/moon.svg

<?xml version="1.0" encoding="UTF-8"?>
<svg width="24px" height="24px" viewBox="0 0 24 24" version="1.1" xmlns="http://www.w3.org/2000/svg" xmlns:xlink="http://www.w3.org/1999/xlink">
    <!-- Generator: Sketch 52.5 (67469) - http://www.bohemiancoding.com/sketch -->
    <title>Moon</title>
    <desc>Created with Sketch.</desc>
    <g id="Icons" stroke="none" stroke-width="1" fill="none" fill-rule="evenodd">
        <g id="Moon" fill="#FFFFFF">
            <path d="M18.0403096,13.5408804 C18.810365,12.7965421 20.0663948,13.5780112 19.7148053,14.6047272 C18.6166317,17.8076788 15.6091695,20 12.1842309,20 C7.58427416,20 3.93388387,16.0972597 4.23767912,11.4557643 C4.46448196,7.99515057 6.95410661,5.04095874 10.3214935,4.21779199 C10.8176935,4.09689393 11.3147628,4.02508357 11.8100954,4.00136244 C12.8859394,3.94971366 13.2752294,5.38052832 12.3545589,5.9119034 C10.7197676,6.85622746 9.77283764,8.67249648 9.98302406,10.6154757 C10.2182438,12.7900636 11.9480369,14.5626007 14.1045267,14.8379204 C15.5841721,15.0266196 17.004318,14.5402952 18.0403096,13.5408804 Z" id="Shape"></path>
        </g>
    </g>
</svg>

<svg width="24" height="24" viewbox="0 0 24 24" xmlns="http://www.w3.org/2000/svg">
  <g>
    <path
      d="M18.04 13.54c.77-.743 2.026.038 1.675 1.065A7.968 7.968 0 0 1 12.185 20c-4.6 0-8.251-3.903-7.947-8.544.226-3.46 2.716-6.415 6.083-7.238.497-.121.994-.193 1.49-.217 1.075-.051 1.464 1.38.544 1.91a4.804 4.804 0 0 0-2.372 4.704c.235 2.175 1.965 3.948 4.122 4.223 1.48.189 2.9-.298 3.935-1.297z"></path>
  </g>
</svg>
